X:1
T:Saipan, CMD
T:Saipan, CMD
T:James Holmes Rosecrans, 1917
T:Public Domain Courtesy of the Cyber Hymnal™
C:James Holmes Rosecrans, 1917
Z:Public Domain
Z:Courtesy of the Cyber Hymnal™
%%score ( 1 2 ) ( 3 4 )
L:1/8
Q:1/4=105
M:4/4
K:G
V:1 treble 
V:2 treble 
V:3 bass 
V:4 bass 
V:1
 [B,D]2 | [B,D]2 [CD]2 D3 [CD] | (DG) (GA) [DB]3 [GB] | [Fc]2 [GB]2 [DA]2 [EG]2 | [FA]6 [Ac]2 | %5
 [GB]2 [Gd]2 G3 [GB] | (AG) ([DF][CE]) !fermata![Ec]3 [Ec] | [DB]2 [DA]2 [DG]2 [DF]2 | %8
 [DG]6 [B,D]2 | [CE]2 [EG]2 [Ec]3 [CE] | (DG) (GA) [DB]3 [Gd] | [Ge]2 [Gd]2 [GB]2 G2 | %12
 [FA]6 [Ac]2 | [GB]2 [Gd]2 G3 [GB] | (AG) ([DF][CE]) !fermata![Ec]3 [CE] | %15
 [B,D]2 [DB]2 [DB]3 [DA] | [DG]6 |] %17
V:2
 x2 | x4 D3 x | B,2 D2 x4 | x8 | x8 | x4 G3 x | E2 x6 | x8 | x8 | x8 | B,2 D2 x4 | x6 G2 | x8 | %13
 x4 G3 x | E2 x6 | x8 | x6 |] %17
V:3
 [G,,G,]2 | [G,,G,]2 [A,,F,]2 [B,,G,]3 [A,,F,] | [G,,G,]2 ([D,G,][D,F,]) G,3 [G,D] | %3
 [A,D]2 [G,D]2 [F,D]2 [E,^C]2 | [D,D]6 [D,D]2 | [G,D]2 [G,B,]2 [G,B,]3 [G,D] | %6
 [C,C]2 [C,G,]2 !fermata![C,G,]3 [C,G,] | [D,G,]2 [D,C]2 [D,B,]2 [D,A,]2 | [G,,B,]6 [G,,G,]2 | %9
 [C,G,]2 [C,G,]2 [C,G,]3 [C,G,] | [G,,G,]2 ([B,,G,][D,F,]) G,3 [G,B,] | %11
 [G,C]2 [G,B,]2 [G,D]2 [B,,D]2 | [D,D]6 [D,D]2 | [G,D]2 [B,,D]2 [E,B,]3 [E,B,] | %14
 [C,C]2 (CG,) !fermata![C,G,]3 [C,G,] | [D,G,]2 [D,G,]2 [D,G,]3 [D,C] | [G,,B,]6 |] %17
V:4
 x2 | x8 | x4 G,3 x | x8 | x8 | x8 | x8 | x8 | x8 | x8 | x4 G,3 x | x8 | x8 | x8 | x2 C,2 x4 | x8 | %16
 x6 |] %17

